!!!COM: Music21
!!!OTL: Foliada
!!!OMV: pezas_foliadas_foliada-11_foliada-partitura.musicxml
**kern
*I"Bagpipes
*I'Bag
*clefG^2
*k[]
*M3/4
=1
!LO:TX:a:t=Despacio
*MM96
!LO:TX:a:t=[quarter]=96
4r
4dd
4dd
=||
4gg
4dd
[4gg
=
4gg]
4.bb
16aaLL
16bbJJ
=
4ccc
4aa
4ccc
=
4bb
4ccc
4ff#X
=
4gg
4.bb
16aaLL
16bbJJ
=
4ccc
12bbL
12ccc
12bbJ
[4aa
=
4aa;]
4dd
4dd
=||
4gg
4dd
[4gg
=
4gg]
4.bb
16aaLL
16bbJJ
!!linebreak:original
=
4ccc
4aa
4ccc
=
4bb
4ccc
4ff#X
=
4gg
4.bb
16aaLL
16bbJJ
=
4ccc
12bbL
12ccc
12bbJ
[4aa
=
4aa;]
4ff
4gg
!!linebreak:original
=||
4aa
4bb
[4gg
=
4gg]
2aa
=
4ff
4dd
[4gg
=
4gg]
2aa
=
4ff
4dd
[4ff
=
4ff]
2gg
=
4ee
[2dd
=
4dd]
4ff
4gg
!!linebreak:original
=||
4aa
4bb
[4gg
=
4gg]
2aa
=
4ff
4dd
[4gg
=
4gg]
2aa
=
4ff
4dd
[4ff
=
4ff]
2gg
=
4ee
[2dd
=
4dd]
2r
=||
*-
